flaticon/interaction/smartphone-16.svg

<svg xmlns="http://www.w3.org/2000/svg" width="32" height="32" viewBox="0 0 24 24">
    <path d="M16.800781 11.601562C15.292969 11.601562 13.875 12.230469 12.898438 13.335938 12.753906 13.5 12.769531 13.753906 12.933594 13.898438 13.101562 14.046875 13.351562 14.03125 13.5 13.863281 14.320312 12.933594 15.523438 12.398438 16.800781 12.398438 19.226562 12.398438 21.199219 14.375 21.199219 16.800781 21.199219 19.226562 19.226562 21.199219 16.800781 21.199219 14.804688 21.199219 13.039062 19.851562 12.503906 18L14.398438 18 14.398438 17.199219 11.199219 17.199219 11.199219 20.398438 12 20.398438 12 18.933594C12.835938 20.746094 14.710938 22 16.800781 22 19.667969 22 22 19.667969 22 16.800781 22 13.933594 19.667969 11.601562 16.800781 11.601562zM8.800781 19.601562C7.917969 19.601562 7.199219 20.316406 7.199219 21.199219 7.199219 22.082031 7.917969 22.800781 8.800781 22.800781 9.683594 22.800781 10.398438 22.082031 10.398438 21.199219 10.398438 20.316406 9.683594 19.601562 8.800781 19.601562zM8.800781 22C8.359375 22 8 21.640625 8 21.199219 8 20.757812 8.359375 20.398438 8.800781 20.398438 9.242188 20.398438 9.601562 20.757812 9.601562 21.199219 9.601562 21.640625 9.242188 22 8.800781 22zM8.800781 22"/>
    <path d="M 13.839844 23.199219 L 3.761719 23.199219 C 3.230469 23.199219 2.800781 22.769531 2.800781 22.238281 L 2.800781 19.199219 L 10 19.199219 C 10.222656 19.199219 10.398438 19.019531 10.398438 18.800781 C 10.398438 18.578125 10.222656 18.398438 10 18.398438 L 2.800781 18.398438 L 2.800781 3.199219 L 14.800781 3.199219 L 14.800781 10 C 14.800781 10.222656 14.980469 10.398438 15.199219 10.398438 C 15.421875 10.398438 15.601562 10.222656 15.601562 10 L 15.601562 1.761719 C 15.601562 0.789062 14.808594 0 13.839844 0 L 3.761719 0 C 2.789062 0 2 0.789062 2 1.761719 L 2 22.238281 C 2 23.210938 2.789062 24 3.761719 24 L 13.835938 24 C 14.058594 24 14.238281 23.820312 14.238281 23.601562 C 14.238281 23.378906 14.058594 23.199219 13.839844 23.199219 Z M 3.761719 0.800781 L 13.835938 0.800781 C 14.367188 0.800781 14.800781 1.230469 14.800781 1.761719 L 14.800781 2.398438 L 2.800781 2.398438 L 2.800781 1.761719 C 2.800781 1.230469 3.230469 0.800781 3.761719 0.800781 Z M 3.761719 0.800781"/>
    <path d="M7.199219 2L8.800781 2C9.019531 2 9.199219 1.820312 9.199219 1.601562 9.199219 1.378906 9.019531 1.199219 8.800781 1.199219L7.199219 1.199219C6.980469 1.199219 6.800781 1.378906 6.800781 1.601562 6.800781 1.820312 6.980469 2 7.199219 2zM10 2L10.398438 2C10.621094 2 10.800781 1.820312 10.800781 1.601562 10.800781 1.378906 10.621094 1.199219 10.398438 1.199219L10 1.199219C9.777344 1.199219 9.601562 1.378906 9.601562 1.601562 9.601562 1.820312 9.777344 2 10 2zM10 2"/>
</svg>

<svg xmlns="http://www.w3.org/2000/svg" width="32" height="32" viewBox="0 0 24 24">
    <path d="M16.8 11.602a5.188 5.188 0 0 0-3.902 1.734.4.4 0 0 0 .602.527 4.393 4.393 0 0 1 3.3-1.465 4.406 4.406 0 0 1 4.4 4.403 4.403 4.403 0 0 1-4.4 4.398c-1.995 0-3.76-1.347-4.296-3.199h1.894v-.8H11.2v3.198H12v-1.464A5.324 5.324 0 0 0 16.8 22c2.868 0 5.2-2.332 5.2-5.2 0-2.866-2.332-5.198-5.2-5.198zm0 0M8.8 19.602a1.6 1.6 0 0 0-1.6 1.597c0 .883.718 1.602 1.6 1.602a1.6 1.6 0 0 0 0-3.2zM8.8 22a.802.802 0 0 1 0-1.602.802.802 0 0 1 0 1.602zm0 0"/>
    <path d="M13.84 23.2H3.762a.96.96 0 0 1-.961-.962V19.2H10c.223 0 .398-.18.398-.398a.398.398 0 0 0-.398-.403H2.8V3.2h12V10c0 .223.18.398.4.398a.398.398 0 0 0 .402-.398V1.762C15.602.789 14.809 0 13.84 0H3.762C2.789 0 2 .79 2 1.762v20.476C2 23.211 2.79 24 3.762 24h10.074a.401.401 0 0 0 .004-.8zM3.762.8h10.074c.531 0 .965.43.965.962v.636h-12v-.636c0-.532.43-.961.96-.961zm0 0"/>
    <path d="M7.2 2h1.6a.4.4 0 0 0 0-.8H7.2a.401.401 0 0 0 0 .8zm0 0M10 2h.398a.401.401 0 1 0 0-.8H10a.398.398 0 0 0-.398.402c0 .218.175.398.398.398zm0 0"/>
</svg>
